Numix-Circle/48x48/apps/drracket.svg

<?xml version="1.0" encoding="UTF-8" standalone="no"?>
<svg
   xmlns:dc="http://purl.org/dc/elements/1.1/"
   xmlns:cc="http://creativecommons.org/ns#"
   xmlns:rdf="http://www.w3.org/1999/02/22-rdf-syntax-ns#"
   xmlns:svg="http://www.w3.org/2000/svg"
   xmlns="http://www.w3.org/2000/svg"
   xmlns:xlink="http://www.w3.org/1999/xlink"
   xmlns:sodipodi="http://sodipodi.sourceforge.net/DTD/sodipodi-0.dtd"
   xmlns:inkscape="http://www.inkscape.org/namespaces/inkscape"
   width="48"
   viewBox="0 0 13.546667 13.546667"
   height="48"
   id="svg2"
   version="1.1"
   inkscape:version="0.91 r13725"
   sodipodi:docname="drracket.svg">
  <metadata
     id="metadata331">
    <rdf:RDF>
      <cc:Work
         rdf:about="">
        <dc:format>image/svg+xml</dc:format>
        <dc:type
           rdf:resource="http://purl.org/dc/dcmitype/StillImage" />
        <dc:title />
      </cc:Work>
    </rdf:RDF>
  </metadata>
  <sodipodi:namedview
     pagecolor="#ffffff"
     bordercolor="#666666"
     borderopacity="1"
     objecttolerance="10"
     gridtolerance="10"
     guidetolerance="10"
     inkscape:pageopacity="0"
     inkscape:pageshadow="2"
     inkscape:window-width="1920"
     inkscape:window-height="1052"
     id="namedview329"
     showgrid="true"
     inkscape:zoom="20.3388"
     inkscape:cx="21.852571"
     inkscape:cy="25.855818"
     inkscape:window-x="0"
     inkscape:window-y="28"
     inkscape:window-maximized="1"
     inkscape:current-layer="layer2">
    <inkscape:grid
       type="xygrid"
       id="grid3308" />
  </sodipodi:namedview>
  <defs
     id="defs4">
    <linearGradient
       id="linearGradient4071">
      <stop
         style="stop-color:#d54141;stop-opacity:1;"
         offset="0"
         id="stop4073" />
      <stop
         style="stop-color:#e85959;stop-opacity:1;"
         offset="1"
         id="stop4075" />
    </linearGradient>
    <linearGradient
       inkscape:collect="always"
       xlink:href="#linearGradient4071"
       id="linearGradient4077"
       x1="18"
       y1="47"
       x2="18"
       y2="1"
       gradientUnits="userSpaceOnUse" />
    <linearGradient
       id="linearGradient3979-9">
      <stop
         style="stop-color:#5389af;stop-opacity:1;"
         offset="0"
         id="stop3981-1" />
      <stop
         style="stop-color:#709dbd;stop-opacity:1;"
         offset="1"
         id="stop3983-9" />
    </linearGradient>
    <linearGradient
       inkscape:collect="always"
       xlink:href="#linearGradient3979-9"
       id="linearGradient4139"
       gradientUnits="userSpaceOnUse"
       x1="-27"
       y1="13"
       x2="-24"
       y2="13" />
  </defs>
  <g
     inkscape:groupmode="layer"
     id="layer1"
     inkscape:label="Shadow"
     sodipodi:insensitive="true">
    <path
       style="opacity:0.05;fill:#000000;fill-opacity:1;stroke:none"
       d="M 25,2 C 12.297451,2 2,12.297451 2,25 2,31.367153 4.6007106,37.116628 8.78125,41.28125 12.865755,44.99361 18.29568,47.25 24.25,47.25 c 12.702549,0 23,-10.297451 23,-23 0,-5.95432 -2.25639,-11.384245 -5.96875,-15.46875 C 37.116628,4.6007105 31.367153,2 25,2 z M 41.28125,8.78125 C 45.135604,12.894061 47.5,18.418655 47.5,24.5 c 0,12.702549 -10.297451,23 -23,23 C 18.418655,47.5 12.894061,45.135604 8.78125,41.28125 12.940939,45.4251 18.664604,48 25,48 37.702549,48 48,37.702549 48,25 48,18.664604 45.4251,12.940939 41.28125,8.78125 z"
       transform="scale(0.28222223,0.28222223)"
       id="path3978"
       inkscape:connector-curvature="0" />
    <path
       style="opacity:0.1;fill:#000000;fill-opacity:1;stroke:none"
       d="M 41.28125,8.78125 C 44.99361,12.865755 47.25,18.29568 47.25,24.25 c 0,12.702549 -10.297451,23 -23,23 -5.95432,0 -11.384245,-2.25639 -15.46875,-5.96875 C 12.894061,45.135604 18.418655,47.5 24.5,47.5 c 12.702549,0 23,-10.297451 23,-23 0,-6.081345 -2.364396,-11.605939 -6.21875,-15.71875 z"
       transform="scale(0.28222223,0.28222223)"
       id="path3976"
       inkscape:connector-curvature="0" />
    <path
       transform="matrix(4.3274074,0,0,3.2455556,117.19278,-35.348334)"
       d="m -24,13 a 1.5,2 0 1 1 -3,0 1.5,2 0 1 1 3,0 z"
       sodipodi:ry="2"
       sodipodi:rx="1.5"
       sodipodi:cy="13"
       sodipodi:cx="-25.5"
       id="path3952"
       style="opacity:0.2;fill:#000000;fill-opacity:1;stroke:none"
       sodipodi:type="arc" />
  </g>
  <g
     inkscape:groupmode="layer"
     id="layer2"
     inkscape:label="Base">
    <path
       sodipodi:type="arc"
       style="fill:url(#linearGradient4139);fill-opacity:1;stroke:none"
       id="path3942"
       sodipodi:cx="-25.5"
       sodipodi:cy="13"
       sodipodi:rx="1.5"
       sodipodi:ry="2"
       d="m -24,13 a 1.5,2 0 1 1 -3,0 1.5,2 0 1 1 3,0 z"
       transform="matrix(0,-4.3274075,3.2455556,0,-35.418894,-103.57556)" />
    <path
       style="opacity:0.1;fill:#000000;fill-opacity:1;stroke:none"
       d="M 40.03125 7.53125 C 43.74361 11.615755 46 17.04568 46 23 C 46 35.702549 35.702549 46 23 46 C 17.04568 46 11.615755 43.74361 7.53125 40.03125 C 11.709416 44.322508 17.537578 47 24 47 C 36.702549 47 47 36.702549 47 24 C 47 17.537578 44.322508 11.709416 40.03125 7.53125 z "
       id="path4027"
       transform="scale(0.28222223,0.28222223)" />
    <path
       style="fill:url(#linearGradient4077);fill-opacity:1;stroke:none"
       d="M 24 1 C 11.297451 1 1 11.297451 1 24 C 1 36.702549 11.297451 47 24 47 L 24 1 z "
       transform="scale(0.28222223,0.28222223)"
       id="rect4047" />
  </g>
  <g
     inkscape:groupmode="layer"
     id="layer3"
     inkscape:label="Symbol">
    <g
       id="g4043"
       style="font-size:9.0538063px;font-style:normal;font-variant:normal;font-weight:normal;font-stretch:normal;line-height:125%;letter-spacing:0px;word-spacing:0px;opacity:0.1;fill:#000000;fill-opacity:1;stroke:none;font-family:Open Sans;-inkscape-font-specification:Open Sans"
       transform="matrix(1.0371049,0,0,0.96422259,0.28225376,0)">
      <path
         sodipodi:nodetypes="cccccccccccccccccscccc"
         inkscape:connector-curvature="0"
         id="path4045"
         style="fill:#000000;fill-opacity:1"
         d="M 4.3539705,10.536986 6.3949388,5.7075343 6.1886345,4.9623527 C 6.1002167,4.7118462 6.0191687,4.5350142 5.9454903,4.4318562 5.8718087,4.3287102 5.7848664,4.2506094 5.6846628,4.1975536 5.587404,4.1445103 5.4665688,4.1179855 5.3221569,4.1179791 c -0.1709385,6.4e-6 -0.3404024,0.019163 -0.5083924,0.05747 l 0,-0.5879669 c 0.2004091,-0.050096 0.3934507,-0.075147 0.5791253,-0.075154 0.2681942,6.9e-6 0.4907077,0.044215 0.6675414,0.1326241 0.1797775,0.088423 0.3345055,0.2284148 0.4641844,0.4199764 0.1296746,0.1915743 0.2740874,0.5113455 0.4332387,0.9593144 l 1.6047518,4.4738535 c 0.055993,0.1444138 0.1149367,0.2549337 0.1768322,0.3315603 0.061887,0.073681 0.1444085,0.1105206 0.247565,0.1105201 0.07957,5e-7 0.1679858,-0.014736 0.2652482,-0.044208 l 0,0.534917 c -0.1414704,0.07073 -0.3020928,0.106099 -0.4818676,0.106099 -0.2180971,0 -0.3890347,-0.056 -0.5128132,-0.16799 C 8.1367317,10.257002 8.0335797,10.078697 7.9481144,9.8340785 L 6.8031264,6.4392694 5.1143487,10.536986" />
    </g>
    <g
       transform="matrix(1.0371049,0,0,0.96422259,0,-0.28222191)"
       style="font-size:9.0538063px;font-style:normal;font-variant:normal;font-weight:normal;font-stretch:normal;line-height:125%;letter-spacing:0px;word-spacing:0px;fill:#f9f9f9;fill-opacity:1;stroke:none;font-family:Open Sans;-inkscape-font-specification:Open Sans"
       id="text3249">
      <path
         d="M 4.3539705,10.536986 6.3949388,5.7075343 6.1886345,4.9623527 C 6.1002167,4.7118462 6.0191687,4.5350142 5.9454903,4.4318562 5.8718087,4.3287102 5.7848664,4.2506094 5.6846628,4.1975536 5.587404,4.1445103 5.4665688,4.1179855 5.3221569,4.1179791 c -0.1709385,6.4e-6 -0.3404024,0.019163 -0.5083924,0.05747 l 0,-0.5879669 c 0.2004091,-0.050096 0.3934507,-0.075147 0.5791253,-0.075154 0.2681942,6.9e-6 0.4907077,0.044215 0.6675414,0.1326241 0.1797775,0.088423 0.3345055,0.2284148 0.4641844,0.4199764 0.1296746,0.1915743 0.2740874,0.5113455 0.4332387,0.9593144 l 1.6047518,4.4738535 c 0.055993,0.1444138 0.1149367,0.2549337 0.1768322,0.3315603 0.061887,0.073681 0.1444085,0.1105206 0.247565,0.1105201 0.07957,5e-7 0.1679858,-0.014736 0.2652482,-0.044208 l 0,0.534917 c -0.1414704,0.07073 -0.3020928,0.106099 -0.4818676,0.106099 -0.2180971,0 -0.3890347,-0.056 -0.5128132,-0.16799 C 8.1367317,10.257002 8.0335797,10.078697 7.9481144,9.8340785 L 6.8031264,6.4392694 5.1143487,10.536986"
         style="fill:#f9f9f9;fill-opacity:1"
         id="path3254"
         inkscape:connector-curvature="0"
         sodipodi:nodetypes="cccccccccccccccccscccc" />
    </g>
  </g>
</svg>

<svg xmlns="http://www.w3.org/2000/svg" width="48" viewBox="0 0 13.546667 13.546667" height="48"><defs><linearGradient id="linearGradient4077" y1="47" x2="0" y2="1" gradientUnits="userSpaceOnUse"><stop stop-color="#d54141" stop-opacity="1"/><stop offset="1" stop-color="#e85959" stop-opacity="1"/></linearGradient><linearGradient id="linearGradient4139" gradientUnits="userSpaceOnUse" x1="-27" x2="-24"><stop stop-color="#5389af" stop-opacity="1"/><stop offset="1" stop-color="#709dbd" stop-opacity="1"/></linearGradient></defs><g><path d="m 25 2 c -12.703 0 -23 10.297 -23 23 0 6.367 2.601 12.12 6.781 16.281 4.085 3.712 9.514 5.969 15.469 5.969 c 12.703 0 23 -10.297 23 -23 0 -5.954 -2.256 -11.384 -5.969 -15.469 c -4.165 -4.181 -9.914 -6.781 -16.281 -6.781 z m 16.281 6.781 c 3.854 4.113 6.219 9.637 6.219 15.719 c 0 12.703 -10.297 23 -23 23 c -6.081 0 -11.606 -2.364 -15.719 -6.219 4.16 4.144 9.883 6.719 16.219 6.719 12.703 0 23 -10.297 23 -23 0 -6.335 -2.575 -12.06 -6.719 -16.219 z" transform="scale(0.28222223,0.28222223)" opacity="0.05" fill="#000" stroke="none" fill-opacity="1"/><path d="m 41.28 8.781 c 3.712 4.085 5.969 9.514 5.969 15.469 c 0 12.703 -10.297 23 -23 23 -5.954 0 -11.384 -2.256 -15.469 -5.969 c 4.113 3.854 9.637 6.219 15.719 6.219 c 12.703 0 23 -10.297 23 -23 0 -6.081 -2.364 -11.606 -6.219 -15.719 z" transform="scale(0.28222223,0.28222223)" opacity="0.1" fill="#000" stroke="none" fill-opacity="1"/><path transform="matrix(4.3274074,0,0,3.2455556,117.19278,-35.348334)" d="m -24 13 a 1.5 2 0 1 1 -3 0 1.5 2 0 1 1 3 0 z" opacity="0.2" fill="#000" stroke="none" fill-opacity="1"/></g><g><path d="m -24 13 a 1.5 2 0 1 1 -3 0 1.5 2 0 1 1 3 0 z" transform="matrix(0,-4.3274075,3.2455556,0,-35.418894,-103.57556)" fill="url(#linearGradient4139)" stroke="none" fill-opacity="1"/><path d="m 40.03 7.531 c 3.712 4.085 5.969 9.514 5.969 15.469 c 0 12.703 -10.297 23 -23 23 c -5.954 0 -11.384 -2.256 -15.469 -5.969 c 4.178 4.291 10.01 6.969 16.469 6.969 c 12.703 0 23 -10.297 23 -23 c 0 -6.462 -2.677 -12.291 -6.969 -16.469 z" transform="scale(0.28222223,0.28222223)" opacity="0.1" fill="#000" stroke="none" fill-opacity="1"/><path d="m 24 1 c -12.703 0 -23 10.297 -23 23 c 0 12.703 10.297 23 23 23 l 0 -46 z" transform="scale(0.28222223,0.28222223)" fill="url(#linearGradient4077)" stroke="none" fill-opacity="1"/></g><g><g transform="matrix(1.0371049,0,0,0.96422259,0.28225376,0)" opacity="0.1" fill="#000" stroke="none" fill-opacity="1"><path d="m 4.354 10.537 2.041 -4.829 -0.206 -0.745 c -0.088 -0.251 -0.169 -0.427 -0.243 -0.53 -0.074 -0.103 -0.161 -0.181 -0.261 -0.234 -0.097 -0.053 -0.218 -0.08 -0.363 -0.08 c -0.171 0 -0.34 0.019 -0.508 0.057 l 0 -0.588 c 0.2 -0.05 0.393 -0.075 0.579 -0.075 0.268 0 0.491 0.044 0.668 0.133 0.18 0.088 0.335 0.228 0.464 0.42 0.13 0.192 0.274 0.511 0.433 0.959 l 1.605 4.474 c 0.056 0.144 0.115 0.255 0.177 0.332 0.062 0.074 0.144 0.111 0.248 0.111 0.08 0 0.168 -0.015 0.265 -0.044 l 0 0.535 c -0.141 0.071 -0.302 0.106 -0.482 0.106 -0.218 0 -0.389 -0.056 -0.513 -0.168 c -0.121 -0.112 -0.224 -0.29 -0.309 -0.535 l -1.145 -3.395 -1.689 4.098" fill="#000"/></g><g transform="matrix(1.0371049,0,0,0.96422259,0,-0.28222191)" fill="#f9f9f9" stroke="none" fill-opacity="1"><path d="m 4.354 10.537 2.041 -4.829 -0.206 -0.745 c -0.088 -0.251 -0.169 -0.427 -0.243 -0.53 -0.074 -0.103 -0.161 -0.181 -0.261 -0.234 -0.097 -0.053 -0.218 -0.08 -0.363 -0.08 c -0.171 0 -0.34 0.019 -0.508 0.057 l 0 -0.588 c 0.2 -0.05 0.393 -0.075 0.579 -0.075 0.268 0 0.491 0.044 0.668 0.133 0.18 0.088 0.335 0.228 0.464 0.42 0.13 0.192 0.274 0.511 0.433 0.959 l 1.605 4.474 c 0.056 0.144 0.115 0.255 0.177 0.332 0.062 0.074 0.144 0.111 0.248 0.111 0.08 0 0.168 -0.015 0.265 -0.044 l 0 0.535 c -0.141 0.071 -0.302 0.106 -0.482 0.106 -0.218 0 -0.389 -0.056 -0.513 -0.168 c -0.121 -0.112 -0.224 -0.29 -0.309 -0.535 l -1.145 -3.395 -1.689 4.098"/></g></g></svg>
